X:1
T:Title
%%score { ( 1 3 ) | ( 2 4 5 ) }
L:1/8
M:6/8
K:G
V:1 treble nm="Grand Piano"
V:3 treble 
V:2 treble 
V:4 treble 
V:5 treble 
V:1
 z3 z2[Q:1/4=84] D | BcB BGB | [FA][DG][FA] [GB]2 B | ded BAG | [GB][GA][GA] [FA]2 D | BcB BGB | %6
 [FA][DG][FA] B2 B | ded BGB |[M:5/8] [EA]GF G2 |[M:1/8] B |[M:3/4] d4 z2 | B4 z2 | [FA]4 z2 | %13
 [GB]6 | d4 z2 | B4 z2 | [EA]4 z2 |[M:5/8] [DG-]2 G3 |] %18
V:2
 z3 z2 [G,B,] | [G,DG][G,EG][G,DG] [G,DG][G,B,D][G,DG] | [D,C][D,B,][D,D] [F,D]2[K:treble] [G,DG] | %3
 [G,B,G][G,CG][G,B,G] [G,DG][K:bass][G,CD][G,B,D] | [E,^C][E,C][A,C] [D,D]2 [G,B,] | %5
 [G,DG][G,EG][G,DG] [G,DG][G,B,D][G,DG] | [D,C][D,B,][D,D][K:treble] [G,DG]2 [G,DG] | %7
 [G,B,G][G,CG][G,B,G] [G,DG][G,B,D][G,DG] |[M:5/8][K:bass] [C,C][D,B,D][D,A,D][K:treble] [G,B,D]2 | %9
[M:1/8] [G,DG] |[M:3/4] G4 z2 | G4[K:bass] z2 | [D,D]D, D,D, D,D, | G,G, G, G,2[K:treble] [G,DG] | %14
 G4 z2 | G4[K:bass] z2 | C,C, .C,2 B,D, |[M:5/8] G,,G,,G,, G,,2 |] %18
V:3
 x6 | x6 | x6 | x6 | x6 | x6 | x6 | x6 |[M:5/8] x5 |[M:1/8] x |[M:3/4] z B, B,B, ed | z D DD AG | %12
 z D DD [DGB][DAc] | DD D D2 B | z B, B,B, ed | z D DD [B,DG][DGB] | CC C[CF] [DG][A,DF] | %17
[M:5/8] B,B,[CE] [B,D]2 |] %18
V:4
 x6 | x6 | x5[K:treble] x | x4[K:bass] x2 | x6 | x6 | x3[K:treble] x3 | x6 | %8
[M:5/8][K:bass] x3[K:treble] x2 |[M:1/8] x |[M:3/4] [G,B,]G, G,G, [G,CG][G,B,G] | %11
 [G,D][K:bass]G, .G,2 [CD][G,B,D] | x6 | x5[K:treble] x | [G,B,]G, G,G, [G,CG][G,B,G] | %15
 [G,D][K:bass]G, G,G, G,G, | z2 z .D,3 |[M:5/8] x5 |] %18
V:5
 x6 | x6 | x5[K:treble] x | x4[K:bass] x2 | x6 | x6 | x3[K:treble] x3 | x6 | %8
[M:5/8][K:bass] x3[K:treble] x2 |[M:1/8] x |[M:3/4] x6 | z2[K:bass] z .G,3 | x6 | x5[K:treble] x | %14
 x6 | x[K:bass] x5 | x6 |[M:5/8] x5 |] %18

